X: 130
T:Castrelo
M:6/8
L:1/8
Q:200
C:Trad.
R:Muiñeira
K:C
E2 F |: G>AG F>EF | G2 E G2 c | B>AG F>EF | 
G2 E E2 F | G>AG F>EF | G2 E G2 c | B>AG A>GF |1 E3 E2 F :|2 E3 "F."c/E/
F 
|: G2 G G>AG | E2 E E>FE | D2 D D>EF |
G/F/E2- E>EF | G2 G E>FG | A3- A>BA | G>EG F>DF |1 E3 
"F."c/E/F :|2 E3 E3 |: D6- | D>B,C D>EF | FG/F/E- E3- | 
E3 E3 | D6- | D>B,C D>EF | FG/F/E- E3 - | E3  A3 |
G6- G2 F/G/ A>GF | FG/F/E- E3- | E>CD E>FE |
E>DC D3- | D>B,C D>ED |1 C6- | C3 E3 :|2 C6- | C3 ||

